!!!OTL: Vater und Tochter 'Kuin Morgen Junkfrau schoeoene',
!!!ARE: Europa, Osteuropa, Ungarn, Komitat Wessprim, Veszpremfajsz
!!!YOR: 7, S. 12
!!    1931 aufgezeichnet
!!!SCT: Q0142A
!!!YEM: Copyright 1995, estate of Helmut Schaffrath.
**kern
*ICvox
*Ivox
*M2/4
*k[f#]
*G:
{8d
=1
8g
8g
8f#
8e
=2
4a
4d}
=3
{4g
8B
8c
=4
4.d}
{8d
=5
8g
8a
8b
8b
=6
8b
8a
8a}
{8a
=7
8.a
16g
8f#
8e
=8
8g
8d
8d}
{8d
=9
8B
8d
8g
8a
=10
4.b}
{8b
=11
8cc
8a
8f#
8f#
=12
4g
8r}
==
!!!AGN: Ballade, Verfuehrung, Verwechslung
!! Zweite Zeile refrainartig.
!!!ONB: ESAC (Essen Associative Code) Database: BALLADE
!!!AMT: simple duple
!!!AIN: vox
!!!EED: Helmut Schaffrath
!!!EEV: 1.0
*-
